svgs/duotone/circle-l.svg

<svg xmlns="http://www.w3.org/2000/svg" viewBox="0 0 512 512"><!-- Font Awesome Pro 6.0.0-alpha2 by @fontawesome - https://fontawesome.com License - https://fontawesome.com/license (Commercial License) --><defs><style>.fa-secondary{opacity:.4}</style></defs><path d="M256 16C123.451 16 16 123.451 16 256S123.451 496 256 496S496 388.549 496 256S388.549 16 256 16ZM328 384H184C170.75 384 160 373.25 160 360V152C160 138.75 170.75 128 184 128S208 138.75 208 152V336H328C341.25 336 352 346.75 352 360S341.25 384 328 384Z" class="fa-secondary"/><path d="M328 336H208V152C208 138.75 197.25 128 184 128S160 138.75 160 152V360C160 373.25 170.75 384 184 384H328C341.25 384 352 373.25 352 360S341.25 336 328 336Z" class="fa-primary"/></svg>

<svg xmlns="http://www.w3.org/2000/svg" viewBox="0 0 512 512"><!--! Font Awesome Pro 6.3.0 by @fontawesome - https://fontawesome.com License - https://fontawesome.com/license (Commercial License) Copyright 2023 Fonticons, Inc. --><defs><style>.fa-secondary{opacity:.4}</style></defs><path class="fa-primary" d="M328 336H208V152C208 138.8 197.3 128 184 128S160 138.8 160 152v208C160 373.3 170.8 384 184 384h144c13.25 0 24-10.75 24-24S341.3 336 328 336z"/><path class="fa-secondary" d="M256 0C114.6 0 0 114.6 0 256s114.6 256 256 256s256-114.6 256-256S397.4 0 256 0zM328 384h-144C170.8 384 160 373.3 160 360v-208C160 138.8 170.8 128 184 128S208 138.8 208 152v184h120c13.25 0 24 10.75 24 24S341.3 384 328 384z"/></svg>
